src/assets/icons/letters,fancy,sans-c.svg

<svg width="48" height="48" viewBox="0 0 48 48" fill="none" xmlns="http://www.w3.org/2000/svg">
<g clip-path="url(#clip0_86:37)">
<path d="M36.157 19.0938C35.3473 12.375 30.2621 8.51136 23.5291 8.51136C15.8445 8.51136 9.97798 13.9375 9.97798 23.4545C9.97798 32.9432 15.745 38.3977 23.5291 38.3977C30.9865 38.3977 35.4893 33.4403 36.157 28.0852L29.9354 28.0568C29.353 31.1676 26.9098 32.9574 23.6286 32.9574C19.2109 32.9574 16.2138 29.6761 16.2138 23.4545C16.2138 17.4034 19.1683 13.9517 23.6712 13.9517C27.0376 13.9517 29.4666 15.8977 29.9354 19.0938H36.157Z" fill="black"/>
</g>
<defs>
<clipPath id="clip0_86:37">
<rect width="48" height="48" fill="white"/>
</clipPath>
</defs>
</svg>

<svg xmlns="http://www.w3.org/2000/svg" width="48" height="48" fill="none" viewBox="0 0 48 48">
  <g clip-path="url(#clip0_86:37)">
    <path fill="#000" d="M36.157 19.094c-.81-6.719-5.895-10.583-12.628-10.583-7.684 0-13.551 5.427-13.551 14.944 0 9.488 5.767 14.943 13.551 14.943 7.457 0 11.96-4.958 12.628-10.313l-6.222-.028c-.582 3.11-3.025 4.9-6.306 4.9-4.418 0-7.415-3.28-7.415-9.503 0-6.05 2.954-9.502 7.457-9.502 3.367 0 5.796 1.946 6.264 5.142h6.222z"/>
  </g>
  <defs>
    <clipPath id="clip0_86:37">
      <path fill="#fff" d="M0 0h48v48H0z"/>
    </clipPath>
  </defs>
</svg>
